**kern	**kern	**dynam
*part1	*part1	*part1
*staff2	*staff1	*
*I"Piano	*	*
*clefF4	*clefG2	*
*k[]	*k[]	*
=1	=1	=1
4r	2d 2f#X 2b	.
4DD 4D	.	.
4D 4F#X	4c 4f# 4a	.
=	=	=
4r	2B 2g	.
4GGG 4GG	.	.
4GG 4Fn	4G 4fn 4g	.
=	=	=
4r	2G 2e 2g	.
4CC 4C	.	.
4C 4E	4G 4c 4e	.
=	=	=
4r	2c 2g 2cc	<
4EE 4E	.	.
4E 4G	4c 4e 4g	.
=	=	=
4r	2g 2cc 2ee	.
4GGG 4GG	.	.
4G 4B-X	4f 4b-X 4dd	.
=	=	=
4r	4f 4b-X 4dd	[
4CC 4C	4e 4b- 4cc	.
4C 4c	4b- 4ee 4gg	.
=	=	=
4r	2a 2cc 2ff	.
4FF 4F	.	.
4F 4B-X	4g 4cc#X 4ee	.
=	=	=
4r	2f 2a 2dd	.
4FF	.	.
4F 4A	4d 4f 4a	.
=	=	=
*-	*-	*-
!!!system-decoration: {(s1,s2)}
